X: 37154
T: Siobhan O'Donnell's
R: reel
M: 4/4
K: Amajor
|:ABce a3b|f3a fece|~f3e cBAF|EFAB cBAF|
~E3F ABce|f3f fece|ffec dBcA|BAGB cAcB:|
|:ABce fece|fA A/A/A fAeA|fA A/A/A fAef|aefa eAce|
~f3e cBAF|~E3F ABce|efec dBcA|BAGB cAcB:|

